X: 9
T:Christy Barry's Set 2
R:Jig
B:irish music mag June 1998
D:Kevin Crawford d flute albu
M:6/8
L:1/8
Q:141
K:D
DEG EDB| DEG B3| DEG B2 e| dBe dBA|DEG EDB| DEG B3|
d2 d gfe|1dBA G3|2 dba g3 :||: gab age| deg B3| gab gab|
dB/2c/2d e2 d|gab age| deg B3| G B/2c/2d gfe|1 dba g3|2 dBA G3 :|
